Hatter-kde/actions/16/edit-none.svg

<svg xmlns="http://www.w3.org/2000/svg" viewBox="0 0 16 16">
  <defs id="defs3051">
    <style type="text/css" id="current-color-scheme">
      .ColorScheme-Text {
        color:#363636;
      }
      </style>
  </defs>
  <path
     style="fill:currentColor;fill-opacity:1;stroke:none" 
     class="ColorScheme-Text"
    d="M 2.7109375 2 L 2.0039062 2.7070312 L 7.2988281 8.0019531 L 2.0078125 13.292969 C 2.0078125 13.292969 2.7238438 13.995 2.7148438 14 L 8.0058594 8.7089844 L 13.296875 14 C 13.287875 13.995 14.003906 13.292969 14.003906 13.292969 L 8.7128906 8.0019531 L 14.007812 2.7070312 L 13.300781 2 L 8.0058594 7.2949219 L 2.7109375 2 z "
          />
</svg>

<?xml version="1.0" encoding="UTF-8"?>
<svg viewBox="0 0 16 16" xmlns="http://www.w3.org/2000/svg">
 <defs id="defs3051">
  <style id="current-color-scheme" type="text/css">.ColorScheme-Text {
        color:#363636;
      }</style>
 </defs>
 <path class="ColorScheme-Text" d="m2.7109 2-0.70703 0.70703 5.2949 5.2949-5.291 5.291s0.71603 0.70203 0.70703 0.70703l5.291-5.291 5.291 5.291c-9e-3 -5e-3 0.70703-0.70703 0.70703-0.70703l-5.291-5.291 5.2949-5.2949-0.70703-0.70703-5.2949 5.2949-5.2949-5.2949z" fill="currentColor"/>
</svg>
